X: 1
T: Summer's End
T: 4 x 32J 4C (Ron Wallace/From the Redwood Forest)
P: Pogo Stick
C: Muriel Johnstone
C: Arr. T. Traub 8-22-2004
R: Jig
M: 6/8
K: G
L: 1/8
|: d|"G"Bcd G2 g|"D"fef "G"g3|DEF GAB|"Am"cBc "D7"d2 c|"G"Bcd G2 g|"D7"fef "Em"gab|"Am"c'bc' "D7"def|"G"g3 g3 :|
b|"D"afd def|"G"gdB G3|"Am"cac "G"BgB|"D"AFD D2 b|"D"afd def|"G"gdB GAB|"Am"cde "D7"fef|"G"g3 g2 b|
"D"afd def|"G"gdB G3|"D7"cac "G"BgB|"D"AFD D2 c|"G"Bcd G2 g|"D7"fef "Em"gab|"Am"c'bc' "D7"def|"G"g3 g2 |]
